<?xml version="1.0" encoding="UTF-8"?>
<map version="1.10" tiledversion="1.11.0" orientation="orthogonal" renderorder="right-down" width="30" height="20" tilewidth="16" tileheight="16" infinite="0" nextlayerid="7" nextobjectid="46">
 <tileset firstgid="1" source="TiledSetFile/grass.tsx"/>
 <tileset firstgid="2" source="TiledSetFile/fences.tsx"/>
 <tileset firstgid="18" source="TiledSetFile/plains.tsx"/>
 <tileset firstgid="90" name="decor_8x8" tilewidth="8" tileheight="8" tilecount="16" columns="4">
  <image source="tilesets/decor_8x8.png" width="32" height="32"/>
 </tileset>
 <tileset firstgid="106" source="decor_16x16.tsx"/>
 <tileset firstgid="126" source="TiledSetFile/decor_8x8.tsx"/>
 <tileset firstgid="142" source="objects2.tsx"/>
 <layer id="1" name="Ground" width="30" height="20">
  <data encoding="csv">
1,1,1,1,1,1,1,1,1,1,1,1,1,1,1,1,25,26,27,1,1,1,1,1,1,1,1,1,1,1,
1,1,1,1,1,1,1,1,1,1,1,1,1,1,1,1,25,26,27,1,1,1,1,1,1,1,1,1,1,1,
1,1,1,1,1,1,1,1,1,1,1,1,1,1,1,19,29,26,27,1,1,1,1,1,1,1,1,1,1,1,
1,1,1,1,1,1,1,1,1,1,1,1,1,1,1,25,26,26,33,1,1,1,1,1,1,1,1,1,1,1,
1,1,1,1,1,1,1,1,1,1,1,1,1,1,1,25,26,27,1,1,1,1,1,1,1,1,1,1,1,1,
1,1,1,1,1,1,1,1,1,1,1,1,1,1,1,25,26,27,1,1,1,1,1,1,1,1,1,1,1,1,
1,1,1,1,1,1,1,1,1,1,1,1,1,1,1,25,26,27,1,1,1,1,1,1,1,1,1,1,1,1,
1,1,1,1,1,1,1,1,1,1,1,1,1,1,1,25,26,27,1,1,1,1,1,1,1,1,1,1,1,1,
1,1,1,1,1,1,1,1,1,1,1,1,1,1,1,25,26,27,1,1,1,1,1,1,1,1,1,1,1,1,
1,1,1,1,1,1,1,1,1,1,1,1,1,1,19,29,26,27,1,1,1,1,1,1,1,1,1,1,1,1,
1,1,1,1,1,1,1,1,1,1,1,1,1,1,25,26,26,27,1,1,1,1,1,1,1,1,1,1,1,1,
1,1,1,1,1,1,1,1,1,1,1,1,1,1,25,26,22,33,1,1,1,1,1,1,1,1,1,1,1,1,
1,1,1,1,1,1,1,1,1,1,1,1,1,1,25,26,27,1,1,1,1,1,1,1,1,1,1,1,1,1,
1,1,1,1,1,1,1,1,1,1,1,1,1,1,25,26,27,1,1,1,1,1,1,1,1,1,1,1,1,1,
1,1,1,1,1,1,1,1,1,1,1,1,1,1,25,26,27,1,1,1,1,1,1,1,1,1,1,1,1,1,
1,1,1,1,1,1,1,1,1,1,1,1,1,1,25,26,27,1,1,1,1,1,1,1,1,1,1,1,1,1,
1,1,1,1,1,1,1,1,1,1,1,1,1,1,25,26,27,1,1,1,1,1,1,1,1,1,1,1,1,1,
1,1,1,1,1,1,1,1,1,1,1,1,1,1,25,26,27,1,1,1,1,1,1,1,1,1,1,1,1,1,
1,1,1,1,1,1,1,1,1,1,1,1,1,1,25,26,27,1,1,1,1,1,1,1,1,1,1,1,1,1,
1,1,1,1,1,1,1,1,1,1,1,1,1,1,25,26,27,1,1,1,1,1,1,1,1,1,1,1,1,1
</data>
 </layer>
 <layer id="3" name="Object" width="30" height="20">
  <data encoding="csv">
0,0,0,0,0,0,0,254,255,256,0,0,0,0,0,0,0,142,0,0,0,0,0,0,0,0,0,0,0,0,
0,0,0,0,0,0,0,270,271,272,0,0,0,0,0,0,0,0,0,96,0,0,0,0,0,0,0,0,0,0,
0,0,109,0,0,0,0,0,0,0,0,0,0,0,0,0,0,0,0,0,0,0,0,0,0,0,0,0,0,0,
0,0,0,0,0,0,0,0,0,0,0,0,0,0,0,0,0,0,0,0,264,265,0,0,0,0,109,0,0,0,
0,0,0,0,0,109,0,0,0,0,0,0,0,0,0,0,0,0,0,0,280,281,0,0,0,0,0,0,0,0,
0,0,0,0,0,0,0,0,0,0,0,0,0,0,0,0,125,0,0,0,0,95,0,0,43,44,45,0,0,0,
0,0,0,0,0,0,0,0,0,0,0,0,109,0,0,0,0,0,0,0,0,0,0,0,49,50,51,0,0,0,
0,0,0,0,0,0,0,0,0,0,0,0,0,0,0,0,124,0,0,95,0,0,0,0,55,56,57,0,0,0,
0,0,0,109,0,0,0,0,0,0,0,0,0,0,0,0,0,0,0,0,106,0,0,0,0,0,0,0,0,0,
0,0,0,109,0,0,0,0,264,265,0,109,0,0,0,0,0,0,0,0,0,0,0,0,0,0,0,109,0,0,
1,0,0,0,0,0,0,0,280,281,0,107,0,0,0,0,122,0,0,0,0,106,0,0,0,0,0,109,0,0,
0,1,1,1,1,0,0,0,0,0,0,0,0,0,0,0,0,0,0,0,0,43,44,45,0,0,0,0,0,0,
0,0,0,0,0,0,0,0,0,0,0,0,95,0,0,0,0,0,0,0,0,49,50,51,0,0,0,0,0,0,
0,0,0,0,0,0,0,0,0,0,158,0,0,0,0,122,0,0,0,0,0,55,56,57,0,0,0,109,0,0,
0,0,0,0,0,0,0,0,0,0,0,0,0,0,0,0,0,0,0,0,0,0,0,0,0,0,0,109,0,0,
0,0,0,109,0,0,0,0,0,0,0,0,0,0,0,0,0,0,0,0,0,0,0,0,0,0,0,109,0,0,
0,0,0,109,0,0,158,0,0,0,0,0,0,0,0,0,0,0,0,0,264,265,0,0,0,0,0,0,0,0,
0,0,0,0,0,0,0,0,109,0,0,0,0,0,0,124,0,0,0,0,280,281,0,0,0,0,0,0,0,0,
0,0,0,0,0,0,0,0,0,0,0,0,0,0,0,122,0,0,109,109,0,0,0,109,0,0,0,0,0,0,
0,0,0,0,0,0,0,0,0,0,0,0,0,0,0,0,0,0,0,0,0,0,0,0,0,0,0,0,0,0
</data>
 </layer>
 <objectgroup id="2" name="Collistion">
  <object id="33" x="123.42" y="7.55682" width="26.3258" height="18.5114"/>
  <object id="35" x="393.667" y="84" width="46" height="43.3333"/>
  <object id="36" x="347.333" y="179" width="46" height="43.3333"/>
  <object id="40" x="135.769" y="148.146" width="26.3025" height="17.803"/>
  <object id="41" x="331.036" y="50.1875" width="25.9275" height="17.6666"/>
  <object id="42" x="164.172" y="208.221" width="10.1093" height="9.87307"/>
  <object id="44" x="327.849" y="259.432" width="26.3025" height="17.803"/>
  <object id="45" x="101.32" y="256.438" width="10.1093" height="9.87307"/>
 </objectgroup>
 <objectgroup id="4" name="Entities">
  <object id="6" name="Player" x="255.667" y="175.667">
   <point/>
  </object>
  <object id="10" name="Enemy" x="517.833" y="-21.5">
   <point/>
  </object>
  <object id="12" name="Enemy" x="662" y="179.333">
   <point/>
  </object>
  <object id="13" name="Enemy" x="345" y="-87.1663">
   <point/>
  </object>
  <object id="14" name="Enemy" x="22.833" y="-78.667">
   <point/>
  </object>
  <object id="15" name="Enemy" x="-162.666" y="254.167">
   <point/>
  </object>
  <object id="30" name="Enemy" x="527.833" y="459.167">
   <point/>
  </object>
  <object id="31" name="Enemy" x="98.667" y="488.5">
   <point/>
  </object>
 </objectgroup>
</map>
